!!!OTL: Wheels on the Bus
!!!COM: unknown
!!!ODT: unknown
!!!YOR: Music for Little People
!!!YOY: 1989
!!!AST: Children's song
!!!YEC: Brian Luke, 2001
**kern	**harm
*k[b-]	*k[b-]
*M2/4	*M2/4
*F:	*F:
*>A	*>A
8c	.
=1	=1
8f	I
16f	.
16f	.
8f	.
8a	.
=2	=2
8cc	.
8a	.
4f	.
=3	=3
8g	V
8g	.
4g	.
=4	=4
8e	V7
8d	.
8c	.
8c	.
=5	=5
8f	I
16f	.
16f	.
8f	.
8a	.
=6	=6
8cc	.
8a	.
4f	.
=7	=7
4g	V7
4c	.
=8	=8
4f	I;
8r	.
*-	*-
